X:65
T:The Templehouse Reel
N:Allan's   #65   pp16
N:Trad/Anon.
N:CONVERTED FROM NOTEWORTHY COMPOSER  (WWW.NOTEWORTHYSOFTWARE.COM) BY
N:ABC2NWC (HTTP://MEMBERS.AOL.COM/ABACUSMUSIC/), WITH
Z: (INTO NWC) VINCE BRENNAN 2002   (WWW.SOSYOURMOM.COM)
I:abc2nwc
M:2/2
L:1/8
K:G
EFGA BGFD|E2 ((3FED) ADFD|EDEF GABc|dBAc (BE) E2||
EFGA BGFD|E2 ((3FED) ADFD|EFGA BAB=c|dBAc (BE) E2||
g2ef g2eg|fd {e}(3 (dcd) fd {e}(3 (dcd)|g2(ef) gfed|BdAc (BE) E2||
g2ef gfeg|fd {e}(3 (dcd) fd=cd|(ef)ge af  ((3gfe)|dBAc (BE) E2|]
